static/images/skills/git.svg

<svg xmlns="http://www.w3.org/2000/svg" xml:space="preserve" style="fill-rule:evenodd;clip-rule:evenodd;stroke-linejoin:round;stroke-miterlimit:2" viewBox="0 0 1200 900"><path d="M0 0h1200v900H0z" style="fill:#f99e8a"/><path d="M124.737 58.378 69.621 3.264c-3.172-3.174-8.32-3.174-11.497 0L46.68 14.71l14.518 14.518c3.375-1.139 7.243-.375 9.932 2.314 2.703 2.706 3.461 6.607 2.294 9.993l13.992 13.993c3.385-1.167 7.292-.413 9.994 2.295 3.78 3.777 3.78 9.9 0 13.679a9.677 9.677 0 0 1-13.683 0 9.69 9.69 0 0 1-2.105-10.521L68.574 47.933l-.002 34.341a9.7 9.7 0 0 1 2.559 1.828c3.778 3.777 3.778 9.898 0 13.683-3.779 3.777-9.904 3.777-13.679 0-3.778-3.784-3.778-9.905 0-13.683a9.6 9.6 0 0 1 3.167-2.11V47.333a9.6 9.6 0 0 1-3.167-2.111c-2.862-2.86-3.551-7.06-2.083-10.576L41.056 20.333 3.264 58.123c-3.154 3.155-3.154 8.345 0 11.5l55.117 55.114c3.174 3.174 8.32 3.174 11.499 0l54.858-54.858c3.153-3.156 3.153-8.346-.001-11.501" style="fill:#f34f29;fill-rule:nonzero" transform="translate(295.8 145.801)scale(4.75308)"/></svg>

<?xml version="1.0" encoding="UTF-8" standalone="no"?>
<!DOCTYPE svg PUBLIC "-//W3C//DTD SVG 1.1//EN" "http://www.w3.org/Graphics/SVG/1.1/DTD/svg11.dtd">
<svg width="100%" height="100%" viewBox="0 0 1200 900" version="1.1" xmlns="http://www.w3.org/2000/svg" xmlns:xlink="http://www.w3.org/1999/xlink" xml:space="preserve" xmlns:serif="http://www.serif.com/" style="fill-rule:evenodd;clip-rule:evenodd;stroke-linejoin:round;stroke-miterlimit:2;">
    <rect x="0" y="0" width="1200" height="900" style="fill:rgb(249,158,138);"/>
    <g transform="matrix(4.75308,0,0,4.75308,295.8,145.801)">
        <path d="M124.737,58.378L69.621,3.264C66.449,0.09 61.301,0.09 58.124,3.264L46.68,14.71L61.198,29.228C64.573,28.089 68.441,28.853 71.13,31.542C73.833,34.248 74.591,38.149 73.424,41.535L87.416,55.528C90.801,54.361 94.708,55.115 97.41,57.823C101.19,61.6 101.19,67.723 97.41,71.502C95.597,73.316 93.134,74.337 90.569,74.337C88.003,74.337 85.54,73.316 83.727,71.502C80.973,68.746 80.14,64.584 81.622,60.981L68.574,47.933L68.572,82.274C69.519,82.74 70.383,83.358 71.131,84.102C74.909,87.879 74.909,94 71.131,97.785C67.352,101.562 61.227,101.562 57.452,97.785C53.674,94.001 53.674,87.88 57.452,84.102C58.357,83.195 59.434,82.478 60.619,81.992L60.619,47.333C59.433,46.848 58.356,46.13 57.452,45.222C54.59,42.362 53.901,38.162 55.369,34.646L41.056,20.333L3.264,58.123C0.11,61.278 0.11,66.468 3.264,69.623L58.381,124.737C61.555,127.911 66.701,127.911 69.88,124.737L124.738,69.879C127.891,66.723 127.891,61.533 124.737,58.378Z" style="fill:rgb(243,79,41);fill-rule:nonzero;"/>
    </g>
</svg>
